X:1
T:Balls to Hall
C:Joe Scurfield
Z:robin.beech@mcgill.ca
R:jig
M:6/8
L:1/8
K:Emin
GEE AEE | BEE cBA | BcB BAG | FAd DEF |
GEE AEE | BEE cBA | BcB B2A |1 GBE E2F :|2 GBE E2B |:
K:E
B2e e2f | gag gfe | cac a2g | fgf edc | B2e e2f |
gag gfe |1 bee a2e | geg f2e :|2 aef =dAB | FEF =DEF |]
